packages/Snappmarket/src/PlusIcon/index.svg

<svg
  xmlns="http://www.w3.org/2000/svg"
  width="32pt"
  height="32pt"
  viewBox="0 0 32 32"
  version="1.1"
  id="PlusIcon"
>
  <g>
    <path d="M 15.6875 0.15625 L 16 0.15625 C 16.691406 0.15625 17.253906 0.71875 17.253906 1.410156 L 17.253906 30.746094 C 17.253906 31.4375 16.691406 32 16 32 L 15.6875 32 C 14.992188 32 14.429688 31.4375 14.429688 30.746094 L 14.429688 1.410156 C 14.429688 0.71875 14.992188 0.15625 15.6875 0.15625 Z M 15.6875 0.15625 "/>
    <path d="M 1.253906 14.746094 L 30.589844 14.746094 C 31.28125 14.746094 31.84375 15.308594 31.84375 16 L 31.84375 16.3125 C 31.84375 17.007812 31.28125 17.570312 30.589844 17.570312 L 1.253906 17.570312 C 0.5625 17.570312 0 17.007812 0 16.3125 L 0 16 C 0 15.308594 0.5625 14.746094 1.253906 14.746094 Z M 1.253906 14.746094 "/>
  </g>
</svg>

<svg xmlns="http://www.w3.org/2000/svg" viewBox="0 0 32 32">
  <path d="M15.688.156H16c.691 0 1.254.563 1.254 1.254v29.336C17.254 31.438 16.69 32 16 32h-.313a1.256 1.256 0 01-1.257-1.254V1.41c0-.691.562-1.254 1.258-1.254zm0 0"/>
  <path d="M1.254 14.746H30.59c.691 0 1.254.563 1.254 1.254v.313c0 .695-.563 1.257-1.254 1.257H1.254A1.256 1.256 0 010 16.312V16c0-.691.563-1.254 1.254-1.254zm0 0"/>
</svg>
